source/img/sprite.svg

<svg xmlns="http://www.w3.org/2000/svg" xmlns:xlink="http://www.w3.org/1999/xlink"><symbol id="logo" viewBox="0 0 68 21">
<path d="M13.3636 0V20.0455H10.0705V5.82273L8.97273 7.20682L6.825 9.975L6.72954 10.0705L6.58636 9.975L4.43864 7.20682L3.34091 5.775V20.0455H0V0H3.34091L6.72954 4.29545L10.0705 0H13.3636Z" fill="#0AD9C6"/>
<path d="M8.30444 10.0704L8.20898 9.97498L8.30444 10.0704Z" fill="#0AD9C6"/>
<path d="M8.44787 9.97498L8.35241 10.0704H8.30469L8.44787 9.97498Z" fill="#0AD9C6"/>
<path d="M38.2092 5.61453L29.0823 12.316L31.1955 15.194L40.3224 8.49252L38.2092 5.61453Z" fill="#0AD9C6"/>
<path d="M26.6674 3C22.8035 3 19.6243 6.13028 19.6243 10.0431C19.6243 13.9071 22.7546 17.0863 26.6674 17.0863C30.5313 17.0863 33.7105 13.956 33.7105 10.0431C33.7105 6.17919 30.5313 3 26.6674 3ZM26.6674 13.2712C24.8577 13.2712 23.4393 11.8039 23.4393 10.0431C23.4393 8.23344 24.9066 6.81503 26.6674 6.81503C28.4282 6.81503 29.8955 8.28235 29.8955 10.0431C29.8955 11.8039 28.4282 13.2712 26.6674 13.2712Z" fill="#0AD9C6"/>
<path d="M43.6396 3C39.7756 3 36.5964 6.13028 36.5964 10.0431C36.5964 13.9071 39.7267 17.0863 43.6396 17.0863C47.5035 17.0863 50.6827 13.956 50.6827 10.0431C50.6338 6.17919 47.5035 3 43.6396 3ZM43.6396 13.2712C41.8299 13.2712 40.4115 11.8039 40.4115 10.0431C40.4115 8.23344 41.8788 6.81503 43.6396 6.81503C45.4004 6.81503 46.8677 8.28235 46.8677 10.0431C46.8677 11.8039 45.4004 13.2712 43.6396 13.2712Z" fill="#0AD9C6"/>
<path d="M67.5977 0.238647V20.2841H64.2568V9.87956L61.4409 7.20683L59.3409 5.15456V20.2841H56V0.238647H59.2932H59.3409L63.2545 4.0091L64.2568 4.96365V0.238647H67.5977Z" fill="#0AD9C6"/>
</symbol><symbol id="mail" viewBox="0 0 26 20">
<path d="M24.2273 0H1.77273C0.768182 0 0 0.764706 0 1.76471V18.2353C0 19.2353 0.768182 20 1.77273 20H24.2273C25.2318 20 26 19.2353 26 18.2353V1.76471C26 0.764706 25.2318 0 24.2273 0ZM24.2273 17L19.5591 12.3529C19.2045 12 18.6727 12 18.3182 12.3529C17.9636 12.7059 17.9636 13.2353 18.3182 13.5882L22.9864 18.2353H3.01362L7.68182 13.5882C8.03636 13.2353 8.03636 12.7059 7.68182 12.3529C7.32727 12 6.79547 12 6.44092 12.3529L1.77273 17V5.70585L12.4091 13.7059C12.5864 13.8236 12.7637 13.8823 12.9409 13.8823C13.1182 13.8823 13.2954 13.8236 13.4727 13.7059L24.2273 5.70585V17ZM24.2273 1.76471V3.4706L12.9409 11.8235L1.77273 3.4706V1.76471H24.2273Z" fill="#0AD9C6"/>
</symbol><symbol id="phone" viewBox="0 0 22 24">
<path d="M3.45616 6.74199C3.37161 5.54391 3.63734 4.36374 4.34096 3.41452C4.95096 2.554 5.74517 2.08404 6.70245 1.8094C7.50874 1.57018 8.03721 1.86329 8.26974 2.75972C8.60192 4.09991 9.07604 5.44018 9.24817 6.85129C9.30253 7.47252 8.90089 8.35089 8.46604 8.80328C7.37589 9.87655 7.60238 10.6576 8.42982 12.282C8.6865 12.8057 9.09418 13.7111 9.88839 14.9096C10.7158 16.1169 11.1537 16.7649 12.2167 16.2152C13.3974 15.6212 14.2581 16.0032 15.1489 16.9621C15.7529 17.6546 16.4172 18.2495 17.0212 18.942C17.8939 19.9718 17.8547 20.6818 17.1722 21.4091C15.9431 22.7486 13.9138 23.1913 12.4039 22.2943C11.5705 21.8058 10.74 21.1664 10.0787 20.4206C7.16453 17.1002 5.06272 13.2388 3.79741 8.88089C3.59508 8.14421 3.50146 7.39872 3.45616 6.74199Z" stroke="#0AD9C6" stroke-width="2" stroke-miterlimit="10"/>
</symbol></svg>

<svg xmlns="http://www.w3.org/2000/svg" xmlns:xlink="http://www.w3.org/1999/xlink"><defs><clipPath id="clip0"><path fill="#fff" transform="rotate(-90 13.5 4.5)" d="M0 0h12v7.4H0z"/></clipPath></defs><symbol id="arrow"><g clip-path="url(#clip0)"><path fill-rule="evenodd" clip-rule="evenodd" d="M9 7.4l4.6 4.6L9 16.6l1.4 1.4 6-6-6-6L9 7.4z" fill="#2C2E3F" fill-opacity=".5"/></g></symbol><symbol id="logo"><path d="M13.364 0v20.046H10.07V5.822L8.973 7.207 6.825 9.975l-.095.095-.144-.095L4.44 7.207l-1.1-1.432v14.27H0V0h3.34l3.39 4.295L10.07 0h3.294zm-5.06 10.07l-.095-.095.095.095z" fill="#0AD9C6"/><path d="M8.448 9.975l-.096.095h-.047l.143-.095zm29.761-4.36l-9.127 6.701 2.113 2.878 9.127-6.701-2.113-2.878z" fill="#0AD9C6"/><path d="M26.667 3c-3.864 0-7.043 3.13-7.043 7.043 0 3.864 3.13 7.043 7.043 7.043 3.864 0 7.043-3.13 7.043-7.043C33.71 6.18 30.531 3 26.667 3zm0 10.271a3.225 3.225 0 01-3.228-3.228 3.225 3.225 0 013.228-3.228c1.76 0 3.228 1.467 3.228 3.228 0 1.76-1.467 3.228-3.228 3.228zM43.64 3c-3.865 0-7.044 3.13-7.044 7.043 0 3.864 3.13 7.043 7.043 7.043 3.864 0 7.043-3.13 7.043-7.043C50.634 6.18 47.503 3 43.64 3zm0 10.271a3.225 3.225 0 01-3.229-3.228 3.225 3.225 0 013.228-3.228c1.761 0 3.228 1.467 3.228 3.228 0 1.76-1.467 3.228-3.228 3.228zM67.598.239v20.045h-3.341V9.88L61.44 7.207l-2.1-2.052v15.13H56V.238h3.341l3.913 3.77 1.003.955V.239h3.34z" fill="#0AD9C6"/></symbol><symbol id="mail"><path d="M24.227 0H1.773C.768 0 0 .765 0 1.765v16.47C0 19.235.768 20 1.773 20h22.454C25.232 20 26 19.235 26 18.235V1.765C26 .765 25.232 0 24.227 0zm0 17l-4.668-4.647a.86.86 0 00-1.24 0 .85.85 0 000 1.235l4.667 4.647H3.014l4.668-4.647a.85.85 0 000-1.235.86.86 0 00-1.241 0L1.773 17V5.706l10.636 8a.956.956 0 00.532.176.955.955 0 00.532-.176l10.754-8V17zm0-15.235V3.47l-11.286 8.352L1.773 3.471V1.765h22.454z" fill="#0AD9C6"/></symbol><symbol id="phone"><path d="M3.456 6.742c-.084-1.198.181-2.378.885-3.327.61-.861 1.404-1.331 2.361-1.606.807-.239 1.335.054 1.568.95.332 1.34.806 2.681.978 4.092.055.622-.347 1.5-.782 1.952-1.09 1.074-.864 1.855-.036 3.479.257.524.664 1.43 1.458 2.628.828 1.207 1.266 1.855 2.329 1.305 1.18-.594 2.041-.212 2.932.747.604.693 1.268 1.288 1.872 1.98.873 1.03.834 1.74.151 2.467-1.229 1.34-3.258 1.782-4.768.885-.834-.488-1.664-1.128-2.325-1.873-2.914-3.32-5.016-7.182-6.282-11.54a10.989 10.989 0 01-.34-2.139z" stroke="#0AD9C6" stroke-width="2" stroke-miterlimit="10"/></symbol></svg>
